X: 37632
T: Snow In April
R: reel
M: 4/4
K: Amajor
|:A,CDA cA (3AAA|aAgA fAeA|B2GB dB (3BBB|bBaB gBeB|
A,CDA cA (3AAA|aAgA fAeA|dfeB ceaf|edcB cA (3AAA:|
|:BE (3EEE BcdB|cA (3AAA dcBA|BE (3EEE BcdB|(3cBA cd Bedc|
BE (3EEE BcdB|cA (3AAA dcBA|dE (3EEE cA(3AAA|edcB cA (3AAA:|

